stack-exchange.svg

<svg fill="currentColor" viewBox="0 0 24 24"><path d="M3.9 10.72H20v3.31H3.9zm0-4.28H20v3.31H3.9zM17.5 2h-11C5.06 2 3.9 3.18 3.9 4.65v.85H20v-.85C20 3.18 18.88 2 17.5 2M3.9 15v.84c0 1.47 1.16 2.66 2.6 2.66h6.87V22l3.4-3.5h.73c1.44 0 2.61-1.19 2.61-2.66V15z"/></svg>

<svg  viewBox="0 0 24 24" fill="currentColor"><path  d="M3.9 10.72H20V14.03H3.9V10.72M3.9 6.44H20V9.75H3.9V6.44M17.5 2H6.5C5.06 2 3.9 3.18 3.9 4.65V5.5H20V4.65C20 3.18 18.88 2 17.5 2M3.9 15V15.84C3.9 17.31 5.06 18.5 6.5 18.5H13.37V22L16.77 18.5H17.5C18.94 18.5 20.11 17.31 20.11 15.84V15H3.9Z"/></svg>
